ir/folder.svg

<svg stroke-width="1.5" viewBox="0 0 24 24" fill="none" xmlns="http://www.w3.org/2000/svg" height="1em" width="1em">
  <path d="M2 11V4.6C2 4.26863 2.26863 4 2.6 4H8.77805C8.92127 4 9.05977 4.05124 9.16852 4.14445L12.3315 6.85555C12.4402 6.94876 12.5787 7 12.722 7H21.4C21.7314 7 22 7.26863 22 7.6V11M2 11V19.4C2 19.7314 2.26863 20 2.6 20H21.4C21.7314 20 22 19.7314 22 19.4V11M2 11H22" stroke="currentColor" stroke-linecap="round" stroke-linejoin="round"/>
</svg>

<svg stroke-width="1.5" viewBox="0 0 24 24" fill="none" xmlns="http://www.w3.org/2000/svg" height="1em" width="1em">
  <path d="M2 11V4.6a.6.6 0 0 1 .6-.6h6.178a.6.6 0 0 1 .39.144l3.164 2.712a.6.6 0 0 0 .39.144H21.4a.6.6 0 0 1 .6.6V11M2 11v8.4a.6.6 0 0 0 .6.6h18.8a.6.6 0 0 0 .6-.6V11M2 11h20" stroke="currentColor" stroke-linecap="round" stroke-linejoin="round"/>
</svg>
